X:1
T:Country Lass, The
M:6/4
L:1/8
R:Air
N:First line -- "What tho' I am a Country Lass."
N:A version of "Cold and Raw"
B:D'Urfey - Pills to Purge Melancholy vol. 2 (1700)
N:Published by Henry Playford
Z:AK/Fiddler's Companion
K:Bmin
E4F2 G4A2|B2c2d2 D4D2|E4E2 B4G2|E6 G6|
G4 G2 G3A G2|A4 A2 A4 A2|B4 B2 e4 d2|B6 d6|
G4 G2 G3A G2|A4 B2 _c4 d2|B3A G2 F3E ^D2|E6 B6||
